!!!COM: Bach, Johann Sebastian
!!!CDT: 1685/3//-1750/7/28/
!!!OTL@@DE: O Gott, du frommer Gott
!!!OTL@EN:  O pious God
!!!AGN: 4-Part Chorale
!!!SCT: Erk 315
!!!SCT: BWV 399
!!!YEC: Copyright 2003 by Craig Stuart Sapp
!!!license: GNU General Public License (http://www.gnu.org/copyleft/gpl.html)
!!!SMA: 371 Bach Chorales, edited by Ludwig Erk, C.F. Peters
!!!PDT: 1850, 1865
!!!ONB: Harmony and Root analysis done manually by Craig Sapp
**kern	**kern	**kern	**kern	**root	**harm	**kern
!bass	!tenor	!alto	!soprno	!	!	!
*Iorgan	*Iorgan	*Iorgan	*Iorgan	*Iorgan	*	*Iorgan
*clefF4	*clefF4	*clefG2	*clefG2	*	*	*
*M4/4	*M4/4	*M4/4	*M4/4	*M4/4	*M4/4	*M4/4
*met(C)	*met(C)	*met(C)	*met(C)	*met(C)	*met(C)	*met(C)
*MM56	*MM56	*MM56	*MM56	*MM56	*MM56	*MM56
*k[f#]	*k[f#]	*k[f#]	*k[f#]	*k[f#]	*k[f#]	*k[f#]
*>[A,A,B]	*>[A,A,B]	*>[A,A,B]	*>[A,A,B]	*>[A,A,B]	*>[A,A,B]	*>[A,A,B]
*>A	*>A	*>A	*>A	*>A	*>A	*>A
*G:	*G:	*G:	*G:	*G:	*G:	*G:
[4E	8G	4g	4b	4EE	vi	4E 4g 4b
.	8A	.	.	.	.	.
=1	=1	=1	=1	=1	=1	=1
8E]	4.B	4f#	4b	4.BB	iii7	4.B 4.dd 4.ff# 4.aa
4D	.	.	.	.	.	.
.	.	8g	4ee	.	.	.
8C	8A	8f#	.	8FF#	vii7Dc	8f# 8a 8C# 8e
8BB	8B	4g	4dd	8GG	Ib	8g 8B 8dd
8C	8e	.	.	8CC	IV	8C 8e 8g
4D	4d	4f#	16cc	4DD	V7	4D 4f# 4a 4cc
.	.	.	16b	.	.	.
.	.	.	8cc	.	.	.
=2	=2	=2	=2	=2	=2	=2
2.GG;	2.d;	2.g;	2.b;	2.GG;	I;	2.G; 2.b; 2.dd;
8GG	8d	4g	8b	8GG	I	8G 8b 8dd
8AA	8c	.	8cc	8AA	ii7	8A 8cc 8ee 8gg
=3	=3	=3	=3	=3	=3	=3
4BB	8B	8g	4dd	4GG	Ib	4g 4B 4dd
.	8A	8f#	.	.	.	.
[4C	4G	8e	4g	4CC	IV	4C 4e 4g
.	.	16f#	.	.	.	.
.	.	16g	.	.	.	.
8C]	4d	4f#	4a	4DD	V7d	4d 4f# 4a 4C
8BB	.	.	.	.	.	.
8AA	4d	[4g	4b	4GG	I	4G 4b 4dd
8GG	.	.	.	.	.	.
=4	=4	=4	=4	=4	=4	=4
2D	4.d	8g]	2a	2DD	V7	2D 2f# 2a 2cc
.	.	8e	.	.	.	.
.	.	4f#	.	.	.	.
.	8c	.	.	.	.	.
4GG;	4B;	4d;	4g;	4GG;	I;	4G; 4b; 4dd;
=:|!	=:|!	=:|!	=:|!	=:|!	=:|!	=:|!
*>B	*>B	*>B	*>B	*>B	*>B	*>B
[4G	4c#	4e	4a	4AA	V7d/V	4a 4cc# 4ee 4G
=5	=5	=5	=5	=5	=5	=5
8G]	4d	4d	4a	4DD	Vb	4d 4F# 4a
8F#	.	.	.	.	.	.
8E	4d	4f#	4b	4BB	iiib	4b 4D 4ff#
8D	.	.	.	.	.	.
4E	8c	4g	8cc	4CC	IVb	4c 4E 4g
.	8B	.	8ee	.	.	.
4F#	8A	4a	8dd	8EE	vi	8E 8g 8b
.	8d	.	8cc	8DD	V7b	8d 8F# 8a 8cc
=6	=6	=6	=6	=6	=6	=6
2.G;	2.d;	2.g;	2.b;	2.GG;	I;	2.G; 2.b; 2.dd;
*D:	*D:	*D:	*D:	*D:	*D:	*D:
4GG	4d	8g	4b	4GG	IV	4G 4b 4dd
.	.	8f#	.	.	.	.
=7	=7	=7	=7	=7	=7	=7
8G	8c#	8e	4a	8AA	V7d	8a 8cc# 8ee 8G
8F#	8A	16d	.	8DD	Ib	8d 8F# 8a
.	.	16c#	.	.	.	.
8B	8G	4d	8dd	8GG	IV	8G 8b 8dd
8A	8F#	.	16ee	8DD	I	8D 8f# 8a
.	.	.	16ff#	.	.	.
8G	8B	8g	4ee	8EE	iib	8e 8G 8b
8E	8g	8b	.	8EE	ii	8E 8g 8b
4A	8f#	8a	8dd	8DD	Ic	8d 8f# 8A
.	8e	8g	8cc#	8AA	V	8A 8cc# 8ee
=8	=8	=8	=8	=8	=8	=8
2.D;	2.d;	2.f#;	2.dd;	2.DD;	I;	2.D; 2.f#; 2.a;
*C:	*C:	*C:	*C:	*C:	*C:	*C:
8d	4f#	4a	4dd	4DD	V/V	4D 4f# 4a
8cn	.	.	.	.	.	.
=9	=9	=9	=9	=9	=9	=9
8B	4g	4g	4dd	4GG	Vb	4g 4B 4dd
8A	.	.	.	.	.	.
8G	4d	4g	4b	4GG	V7d	4g 4b 4dd 4F
8Fn	.	.	.	.	.	.
8E	4e	4g	4cc	4CC	Ib	4c 4E 4g
8D	.	.	.	.	.	.
8C	4fn	4g	4dd	4GG	V7b	4g 4B 4dd 4ff
8BB	.	.	.	.	.	.
=10	=10	=10	=10	=10	=10	=10
2.C;	2.e;	2.g;	2.ee;	2.CC;	I;	2.C; 2.e; 2.g;
*G:	*G:	*G:	*G:	*G:	*G:	*G:
4D	4d	4f#	4a	4DD	V	4D 4f# 4a
=11	=11	=11	=11	=11	=11	=11
8GG	4d	4g	8b	4GG	I	4G 4b 4dd
8AA	.	.	16cc	.	.	.
.	.	.	16dd	.	.	.
8BB	8d	4g	8cc	4CC	IV7	4C 4e 4g 4b
8C	8e	.	8b	.	.	.
4D	4d	4g	4b	4GG	Ic	4g 4b 4D
4D	4c	4f#	8a	4DD	V7	4D 4f# 4a 4cc
.	.	.	8g	.	.	.
=12	=12	=12	=12	=12	=12	=12
2.GG;	2.B;	2.d;	2.g;	2.GG;	I;	2.G; 2.b; 2.dd;
==|!	==|!	==|!	==|!	==|!	==|!	==|!
*-	*-	*-	*-	*-	*-	*-
